svgs/notion.svg

<svg width="192" height="192" viewBox="0 0 192 192" fill="none" xmlns="http://www.w3.org/2000/svg">
<path fill-rule="evenodd" clip-rule="evenodd" d="M138.462 21.5219L166.246 41.1102L166.29 41.143L166.565 41.3441L166.565 41.3442C168.278 42.6 169.914 43.7989 171.017 45.1741C172.428 46.9336 172.901 48.8181 172.901 51.051V155.757C172.901 159.344 172.266 162.935 169.843 165.691C167.392 168.48 163.698 169.758 159.111 170.085L159.093 170.086L60.4643 176.057L60.443 176.058C57.2012 176.212 54.3492 176.093 51.7743 175.151C49.0863 174.167 47.0554 172.424 45.1703 170.022L45.1603 170.01L25.1811 144.031L25.1686 144.014C21.3582 138.928 19.4464 134.666 19.4464 129.505V34.5091C19.4464 31.3881 20.1341 28.1153 22.1908 25.4756C24.315 22.7492 27.5466 21.1482 31.694 20.7896L31.7518 20.7846L116.606 16.4407C121.798 15.9957 125.544 15.8654 128.892 16.6264C132.351 17.4126 135.1 19.0785 138.462 21.5219ZM56.4303 157.336H56.4318V160.636C56.4318 162.54 56.9011 162.973 57.0455 163.088C57.341 163.323 58.2475 163.74 60.6872 163.606L158.136 158.235C160.064 158.129 160.392 157.586 160.484 157.434L160.489 157.426C160.779 156.95 160.975 156.019 160.975 154.069V60.0006C160.975 58.366 160.641 57.7825 160.554 57.6744C160.551 57.6708 160.55 57.6685 160.549 57.6669C160.548 57.6657 160.547 57.665 160.547 57.6644C160.546 57.6635 160.544 57.663 160.541 57.6619C160.538 57.661 160.534 57.6597 160.529 57.6576C160.476 57.639 160.266 57.5795 159.805 57.6211L159.748 57.6262L58.1257 63.2942C57.5019 63.3501 57.1527 63.4567 56.9741 63.5355C56.8318 63.5983 56.8014 63.6399 56.7925 63.652L56.7912 63.6538C56.7255 63.7395 56.4303 64.2401 56.4303 65.9752V157.336ZM65.5149 50.6306L152.589 46.1251L131.561 30.7495L131.522 30.719C130.263 29.7391 129.015 28.8648 127.402 28.2586C125.814 27.6617 123.707 27.2657 120.733 27.5253L120.683 27.5298L33.6741 32.4281L33.6647 32.4287C33.3171 32.4509 33.0205 32.4927 32.771 32.5443L49.9337 48.5599C51.9707 50.2061 53.0426 50.7059 54.2711 50.9271C55.8087 51.204 57.7911 51.0944 61.9934 50.8117L65.5149 50.5748V50.6306ZM31.2836 47.0449V130.938C31.2836 131.476 31.4587 131.999 31.7825 132.428L44.956 149.892V61.224C44.956 60.4961 44.6354 59.805 44.0795 59.335L43.9992 59.2671L31.2836 47.0449ZM141.155 82.1069C141.606 84.1478 141.155 86.1886 139.114 86.4218L135.721 87.0947V136.976C132.774 138.562 130.061 139.468 127.794 139.468C124.172 139.468 123.266 138.334 120.555 134.938L120.552 134.935L98.3596 100.02V133.8L105.38 135.39C105.38 135.39 105.38 139.472 99.7159 139.472L84.1006 140.378C83.6458 139.468 84.1006 137.202 85.6832 136.751L89.7613 135.62V90.9548L84.1018 90.4965C83.647 88.4557 84.7782 85.5087 87.9502 85.2801L104.705 84.1524L127.795 119.519V88.2306L121.91 87.5542C121.455 85.0551 123.266 83.2393 125.528 83.0177L141.155 82.1081V82.1069Z" fill="black"/>
</svg>

<svg width="192" height="192" fill="none" xmlns="http://www.w3.org/2000/svg"><path fill-rule="evenodd" clip-rule="evenodd" d="m138.462 21.522 27.784 19.588.044.033.275.201c1.713 1.256 3.349 2.455 4.452 3.83 1.411 1.76 1.884 3.644 1.884 5.877v104.706c0 3.587-.635 7.178-3.058 9.934-2.451 2.789-6.145 4.067-10.732 4.394l-.018.001-98.629 5.971-.021.001c-3.242.154-6.094.035-8.669-.907-2.688-.984-4.719-2.727-6.604-5.129l-.01-.012-19.979-25.979-.012-.017c-3.81-5.086-5.723-9.348-5.723-14.509V34.509c0-3.12.688-6.394 2.745-9.033 2.124-2.727 5.356-4.328 9.503-4.686l.058-.005 84.854-4.344c5.192-.445 8.938-.576 12.286.185 3.459.787 6.208 2.452 9.57 4.896ZM56.43 157.336h.002v3.3c0 1.904.47 2.337.613 2.452.296.235 1.203.652 3.642.518l97.449-5.371c1.928-.106 2.256-.649 2.348-.801l.005-.008c.29-.476.486-1.407.486-3.357V60.001c0-1.635-.334-2.218-.421-2.327l-.005-.007-.002-.003-.006-.002a.117.117 0 0 1-.012-.004c-.053-.019-.263-.078-.724-.037l-.057.005-101.622 5.668c-.624.056-.973.163-1.152.242-.142.062-.173.104-.181.116l-.002.002c-.066.085-.36.586-.36 2.321v91.361Zm9.085-106.705 87.074-4.506-21.028-15.375-.039-.031c-1.259-.98-2.507-1.854-4.12-2.46-1.588-.597-3.695-.993-6.669-.734l-.05.005-87.009 4.898h-.01a6.453 6.453 0 0 0-.893.116L49.934 48.56c2.037 1.646 3.109 2.146 4.337 2.367 1.538.277 3.52.167 7.722-.115l3.522-.237v.056Zm-34.231-3.586v83.893c0 .538.175 1.061.498 1.49l13.174 17.464V61.224c0-.728-.32-1.419-.877-1.889l-.08-.068-12.715-12.222Zm109.871 35.062c.451 2.04 0 4.082-2.041 4.315l-3.393.673v49.881c-2.947 1.586-5.66 2.492-7.927 2.492-3.622 0-4.528-1.134-7.239-4.53l-.003-.003L98.36 100.02v33.78l7.02 1.59s0 4.082-5.664 4.082l-15.615.906c-.455-.91 0-3.176 1.582-3.627l4.078-1.131V90.955l-5.66-.459c-.454-2.04.677-4.987 3.85-5.216l16.754-1.128 23.09 35.367V88.231l-5.885-.677c-.455-2.499 1.356-4.315 3.618-4.536l15.627-.91v-.001Z" fill="#000"/></svg>
